X:2499
T:Hatfield House. HSJJ.191
O:england
M:2/4
L:1/16
S:HSJ Jackson,Wyresdale,Lancs.1823
R:Air
A:Lancashire
H:1823
K:G
D2|G2A2 B2G2|c2A2F2D2|GABc defg|d6Bd|c2a^g a2c2|B2gf g2B2|A2e2d2F2|G6:|
|:d2|g2a2b2b2|a4f2d2|e2f2g2g2|f4B2B2|c2d2e2e2|d4B2G2|F2A2c2B2|B4A2D2|
G2A2B2G2|c2A2F2D2|GABc defg|d6Bd|c2ag a2c2|B2gf g2B2|A2e2 d2F2|G4z2|]
